**kern
*staff2
*tb8
=1-
*clefG2
*k[b-e-a-]
*met(c)
*M4/4
8e-/L 8g/L
8B-/
8B-/
8e-/J 8g/J
8e-/L 8g/L
8B-/
8B-/
8e-/J 8g/J
=2
8e-/L 8a-/L
8c/
8c/
8e-/J 8a-/J
8f/L 8a-/L
8B-/
8B-/
8f/J 8a-/J
=3
8e-/L 8g/L
8B-/
8B-/
8e-/J 8g/J
8e-/L 8g/L
8c/
8c/
8e-/J 8g/J
=4
!!linebreak:original
1r
.
.
.
.
.
.
.
=5
8f/L 8a-/L
8B-/
8B-/
8f/J 8a-/J
8e-/L 8a-/L
8B-/
8B-/
8e-/J 8a-/J
=6
8d/L 8a-/L
8B-/
8B-/
8d/J 8a-/J
8d/L 8a-/L
8B-/
8B-/
8d/J 8a-/J
=7
!!linebreak:original
8e-/L 8g/L
8B-/
8B-/
8e-/J 8g/J
8e-/L 8g/L
8B-/
8B-/
8e-/J 8g/J
=8
8e-/L 8g/L
8c/
8c/
8e-/J 8g/J
8e-/L 8g/L
8c/
8c/
8e-/J 8g/J
=9
8en/L 8g/L
8B-/
8B-/
8e/J 8g/J
8c/L 8g/L
8An/
8A/
8c/J 8g/J
=10
!!linebreak:original
8d/L 8f#/L
8An/
8A/
8d/J 8f#/J
8d/L 8f#/L
8A/
8A/
8d/J 8f#/J
=11
8d/L 8g/L
8Bn/
8B/
8d/J 8g/J
8d/L 8g/L
8B/
8B/
8d/J 8g/J
=12
8e-/L 8g/L
8c/
8c/
8e-/J 8g/J
8e-/L 8g/L
8B-/
8B-/
8e-/J 8g/J
=13
!!linebreak:original
8e-/L 8a-/L
8c/
8c/
8e-/J 8a-/J
8en/L 8b-/L
8c/
8c/
8e/J 8b-/J
=14
8f/L 8a-/L
8c/
8c/
8f/J 8a-/J
8f/L 8a-/L
8B-/
8B-/
8f/J 8a-/J
=15
8f/L 8a-/L
8B-/
8B-/
8f/J 8a-/J
8f/L 8a-/L
8B-/
8B-/
8f/J 8a-/J
=16
!!linebreak:original
8e-/L 8g/L
8B-/
8B-/
8e-/J 8g/J
8e-/L 8g/L
8c/
8c/
8e-/J 8g/J
=17
8f/L 8a-/L
8c/
8c/
8f/J 8a-/J
8f/L 8a-/L
8B-/
8B-/
8f/J 8a-/J
=18
8e-/L 8g/L
8B-/
8B-/
8e-/J 8g/J
8e-/L 8a-/L
8B-/
8B-/
8e-/J 8a-/J
=19
8e-/L 8g/L
8B-/
8B-/
8e-/J 8g/J
8e-/L 8g/L
8B-/
8B-/
8e-/J 8g/J
=20
!!linebreak:original
8e-/L 8a-/L
8A-/
8A-/
8e-/J 8a-/J
8e-/L 8g-/L
8B-/
8B-/
8e-/J 8g-/J
=21
8e-/L 8g-/L
8c/
8c/
8e-/J 8f/J
8e-/L 8an/L
8c/
8c/
8e-/J 8f/J
=22
8d/L
8B-/
8d/ 8f/
8B-/J
8e-/L 8g/L
8B-/
8d/ 8a-/
8B-/J
=23
!!linebreak:original
4B-/ 4e-/ 4g/
.
4a-\ 4dd\
.
4g/ 4cc/
.
4f/ 4bn/
.
=24
4e-/ 4a-/
.
4d-/ 4g/
.
4c/ 4f/
.
4B-/ 4d-/
.
=25
2A-/ 2c/
.
.
.
2r
.
.
.
=26
4A-/ 4d/
.
4r
.
4r
.
4r
.
=27
!!linebreak:original
8e-/L 8g/L
8B-/
8B-/
8e-/J 8g/J
8e-/L 8g/L
8B-/
8B-/
8e-/J 8g/J
=28
8e-/L 8a-/L
8c/
8c/
8e-/J 8a-/J
8f/L 8a-/L
8B-/
8B-/
8f/J 8a-/J
=29
8e-/L 8g/L
8B-/
8B-/
8e-/J 8g/J
8e-/L 8g/L
8c/
8c/
8e-/J 8g/J
=30
!!linebreak:original
8e-/L 8a-/L
8c/
8c/
8e-/J 8a-/J
8e-/L 8a-/L
8c/
8c/
8e-/J 8a-/J
=31
8f/L 8a-/L
8B-/
8B-/
8f/J 8a-/J
8e-/L 8a-/L
8B-/
8B-/
8e-/J 8a-/J
=32
8d/L 8a-/L
8B-/
8B-/
8d/J 8a-/J
8d/L 8a-/L
8B-/
8B-/
8d/J 8a-/J
=33
!!linebreak:original
8e-/L 8g/L
8B-/
8B-/
8e-/J 8g/J
8e-/L 8g/L
8B-/
8B-/
8e-/J 8g/J
=34
8e-/L 8g/L
8c/
8c/
8e-/J 8g/J
8e-/L 8g/L
8c/
8c/
8e-/J 8g/J
=35
8en/L 8g/L
8B-/
8B-/
8e/J 8g/J
8c/L 8g/L
8An/
8A/
8c/J 8g/J
=36
!!linebreak:original
8d/L 8f#/L
8An/
8A/
8d/J 8f#/J
8d/L 8f#/L
8A/
8A/
8d/J 8f#/J
=37
8d/L 8g/L
8Bn/
8B/
8d/J 8g/J
8d/L 8g/L
8B/
8B/
8d/J 8g/J
=38
8e-/L 8g/L
8c/
8c/
8e-/J 8g/J
8e-/L 8g/L
8B-/
8B-/
8e-/J 8g/J
=39
!!linebreak:original
8e-/L 8a-/L
8c/
8c/
8e-/J 8a-/J
8en/L 8b-/L
8c/
8c/
8e/J 8b-/J
=40
8f/L 8a-/L
8c/
8c/
8f/J 8a-/J
8f/L 8a-/L
8B-/
8B-/
8f/J 8a-/J
=41
8f/L 8a-/L
8B-/
8B-/
8f/J 8a-/J
8f/L 8a-/L
8B-/
8B-/
8f/J 8a-/J
=42
!!linebreak:original
8e-/L 8g/L
8B-/
8B-/
8e-/J 8g/J
8e-/L 8g/L
8c/
8c/
8e-/J 8g/J
=43
8f/L 8a-/L
8c/
8c/
8f/J 8a-/J
8f/L 8a-/L
8B-/
8B-/
8f/J 8a-/J
=44
8e-/L 8g/L
8B-/
8B-/
8e-/J 8g/J
8e-/L 8a-/L
8B-/
8B-/
8e-/J 8a-/J
=45
8e-/L 8g/L
8B-/
8B-/
8e-/J 8g/J
8e-/L 8g/L
8B-/
8B-/
8e-/J 8g/J
=46
!!linebreak:original
8e-/L 8a-/L
8A-/
8A-/
8e-/J 8a-/J
8e-/L 8g-/L
8B-/
8B-/
8e-/J 8g-/J
=47
8e-/L 8g-/L
8c/
8c/
8e-/J 8f/J
8e-/L 8an/L
8c/
8c/
8e-/J 8f/J
=48
8d/L
8B-/
8d/ 8f/
8B-/J
8e-/L 8g/L
8B-/
8d/ 8a-/
8B-/J
=49
!!linebreak:original
4B-/ 4e-/ 4g/
.
4a-\ 4dd\
.
4g/ 4cc/
.
4f/ 4bn/
.
=50
4e-/ 4a-/
.
4d-/ 4g/
.
4c/ 4f/
.
4B-/ 4d-/
.
=51
2A-/ 2c/
.
.
.
2r
.
.
.
=52
4A-/ 4d/
.
4r
.
4r
.
4r
.
=53
4G/ 4e-/
.
4r
.
2r
.
.
.
==
*-
